X:1
T:Se la vostra partita
T:NSF Se la vostra partita
T:Luca Marenzio (1553-1599)
C:Luca Marenzio (1553-1599)
%%score [ 1 2 3 ]
L:1/8
M:2/2
K:G
V:1 treble nm="S"
V:2 treble nm="A"
V:3 bass nm="B"
V:1
|: B6 B2 | B4 B2 B2 | c8 | B4 B2 B ^c | d4 z2 ^c2 | d2 e2 f4- | f2 d2 ^c4 | B8 :| z4 E2 F G | %9
w: Se la|vo- stra par-|ti-|ta, Dol- ce si-|gnor, Mi|die- de tal|_ mar- ti-|re,|Ch'io mi pen-|
 A4 D2 E F | G4 z2 e2 | (e3 d/^c/ B4) | A4 z2 e2 |: d2 B2 d2 d2 | A2 A B ^c3 d | (e3 d/^c/ B2) B2 | %16
w: sai, Ch'io mi pen-|sai mo-|ri- * * *|re, Hor|che tor- na- te|sen- to Mu- tar mi~in|al- * * * le-|
 (B3 A/G/) F2 d2 | d2 ^c2 (B4- | B3 A/G/ F4) |1 E4 z2 e2 :|2 E8 |] %21
w: gre- * * zza o-|gni tor- men-||to. Hor|\-to.|
V:2
|: G6 G2 | G4 F2 ^G2 | A8 | ^G4 G2 G A | B4 z2 A2 | B2 ^c2 (d2 B2 | ^A2) B4 A2 | B8 :| z4 ^C2 D E | %9
w: Se la|vo- stra par-|ti-|ta, Dol- ce si-|gnor, Mi|die- de tal _|_ mar- ti-|re,|Ch'io mi pen-|
 F4 B,2 ^C D | E4 z2 ^G2 | (^G2 A4 G2) | A2 =c2 B2 G2 |: B2 G2 F2 F G | A2 F2 (EDEF) | %15
w: sai, Ch'io mi pen-|sai mo-|ri- * *|re, Hor che tor-|na- te sen- to Mu-|ta- re mi~in _ _ _|
 G2 G2 (G3 F/E/) | D4 A4 | B2 A2 (G2 FE | ^D2 E4 D2) |1 E2 =c2 B2 G2 :|2 E8 |] %21
w: al- le- gre- * *|zza o-|gni tor- men- * *||to. Hor che tor\-|\-to.|
V:3
|: E,6 E,2 | E,4 ^D,2 E,2 | A,,8 | E,4 E,2 E, A, | G,2 B,2 A,4 | G,4 D,2 E,2 | F,8 | B,,8 :| %8
w: Se la|vo- stra par-|ti-|ta, Dol- ce si-|gnor, Mi die-|de tal mar-|ti-|re,|
 E,2 F, G, A,4 | D,2 E, F, G,4 | z2 E,2 E,4- | E,8 | A,,2 A,2 G,2 E,2 |: G,2 G,2 D,2 D, E, | %14
w: Ch'io mi pen- sai,|Ch'io mi pen- sai|mo- ri-||re, Hor che tor-|na- te sen- to Mu-|
 F,3 G, (A,3 G,/F,/) | E,2 E,2 (E,3 D,/^C,/) | B,,2 ^C,2 D,2 D,2 | (G,,6 A,,2 | B,,8) |1 %19
w: ta- re mi~in _ _|al- le- gre- * *|zza o- gni tor-|men- *||
 E,2 A,2 G,2 E,2 :|2 E,8 |] %21
w: to. Hor che tor\-|\-to.|

